X: 10252
T: Dochno
R: slide
M: 12/8
K: Dmajor
|:fdA f2f ga ed cA|G3 edc A2 GA BA|
E=FG =c2c de dc G2|B3 B3 cd e2- e2|
fdA f2f ga ed cA|G3 edc A2 GA BA|
E=FG =c2c de dc G2|1 B3 B3 cd e2- e2:|2 B3 B3 cd ef ga||
|:b3 b2g e2 ef gb|a3 g2a f2 fe dA|
B3 B2d c2- cd ec|d3 efd e2- e2 a2|
b3 b2g e2 ef gb|a3 g2a f2 fe dA|
B3 B2d c2- cd ec|
M:3/4
d3- d3-|d3- d3-|d3- d3-|d3- d3||

